X: 19407
T: Jackie Daly's
R: polka
M: 2/4
K: Gmajor
dB BA|GB Be|dB dB|1 A2Ae|
dB BA|GB Be|dB/d/ ef|g2fe:|
[2 A2AB|cB AG|FG AB|cd ef|g2g2||
|:gf/g/ ba|fe/f/ af|1 ed e>f|fd Bd:|2 ed ef|g2g2||

